T: Storm Cloud
M: 6/8
L: 1/8
K: Dmix
|: dcA cAG | ~F2 D DFD | FGG GFG | Acc cAc |dcA cAG | ~F2 D DFD | FGA cAG | FDD ~D3 :||: def fed | cde edc | def fed | cAG =FDD |def fed | ceg ~g2 e |fed cAG |1 Ace dcA :|2 Add ~d3 ||
